assets/img/braze_icons/paint-pour.svg

<svg fill="none" height="24" viewBox="0 0 24 24" width="24" xmlns="http://www.w3.org/2000/svg"><g fill="#801ed7"><path clip-rule="evenodd" d="m8.70705 1.29289c-.39053-.390521-1.02369-.390521-1.41421 0-.39053.39053-.39053 1.02369 0 1.41422l.29289.29289-5.05741 5.0574c-.37276.37274-.69434.6943-.93756.9808-.25671.30239-.48433.63087-.61556 1.0347-.195774.6026-.195774 1.2516 0 1.8542.13123.4038.35885.7323.61556 1.0347.24322.2865.56479.608.93754.9808l3.52902 3.529c.37272.3727.69433.6944.98082.9376.30239.2567.63087.4843 1.03475.6155.60253.1958 1.25157.1958 1.8541 0 .40391-.1312.73231-.3588 1.03471-.6155.2865-.2432.6081-.5648.9808-.9376l4.6557-4.6557c.1785-.1784.3523-.3522.4875-.5114.1484-.1749.308-.3967.4021-.6865.1306-.4017.1306-.8343 0-1.236-.0941-.2898-.2537-.51164-.4021-.68649-.1352-.15921-.309-.33299-.4875-.51143zm.29289 3.12132-5.03015 5.03015c-.22298.22298-.40258.40291-.54965.55564h11.16556z" fill-rule="evenodd"/><path d="m20 12c.2509 0 .5013.0938.6941.2799.0317.0303.0631.0611.0944.0919.06.0593.1443.1438.2448.2483.1999.2079.4691.5.7411.8328.2688.3291.5579.7191.7845 1.1216.2115.3757.4411.8862.4411 1.4254 0 1.6568-1.3431 3-3 3s-3-1.3432-3-3c0-.5392.2296-1.0497.4411-1.4254.2266-.4025.5157-.7925.7845-1.1216.272-.3328.5412-.6249.7411-.8328.1005-.1045.1848-.189.2448-.2483.0313-.0308.0627-.0616.0944-.0919.1151-.1111.2508-.1893.3948-.2343.0974-.0304.1984-.0456.2993-.0456z"/><path d="m2 21c-.55228 0-1 .4477-1 1s.44772 1 1 1h12c.5523 0 1-.4477 1-1s-.4477-1-1-1z"/></g></svg>

<svg width="24" height="24" viewBox="0 0 24 24" fill="none" xmlns="http://www.w3.org/2000/svg">
<path fill-rule="evenodd" clip-rule="evenodd" d="M8.70705 1.29289C8.31652 0.902369 7.68336 0.902369 7.29284 1.29289C6.90231 1.68342 6.90231 2.31658 7.29284 2.70711L7.58573 3L2.52832 8.0574C2.15556 8.43014 1.83398 8.7517 1.59076 9.0382C1.33405 9.34059 1.10643 9.66907 0.9752 10.0729C0.779426 10.6755 0.779426 11.3245 0.9752 11.9271C1.10643 12.3309 1.33405 12.6594 1.59076 12.9618C1.83398 13.2483 2.15555 13.5698 2.5283 13.9426L6.05732 17.4716C6.43004 17.8443 6.75165 18.166 7.03814 18.4092C7.34053 18.6659 7.66901 18.8935 8.07289 19.0247C8.67542 19.2205 9.32446 19.2205 9.92699 19.0247C10.3309 18.8935 10.6593 18.6659 10.9617 18.4092C11.2482 18.166 11.5698 17.8444 11.9425 17.4716L16.5982 12.8159C16.7767 12.6375 16.9505 12.4637 17.0857 12.3045C17.2341 12.1296 17.3937 11.9078 17.4878 11.618C17.6184 11.2163 17.6184 10.7837 17.4878 10.382C17.3937 10.0922 17.2341 9.87036 17.0857 9.69551C16.9505 9.5363 16.7767 9.36252 16.5982 9.18408L8.70705 1.29289ZM8.99994 4.41421L3.96979 9.44436C3.74681 9.66734 3.56721 9.84727 3.42014 10L14.5857 10L8.99994 4.41421Z" fill="#801ED7"/>
<path d="M20 12C20.2509 12 20.5013 12.0938 20.6941 12.2799C20.7258 12.3102 20.7572 12.341 20.7885 12.3718C20.8485 12.4311 20.9328 12.5156 21.0333 12.6201C21.2332 12.828 21.5024 13.1201 21.7744 13.4529C22.0432 13.782 22.3323 14.172 22.5589 14.5745C22.7704 14.9502 23 15.4607 23 15.9999C23 17.6567 21.6569 18.9999 20 18.9999C18.3431 18.9999 17 17.6567 17 15.9999C17 15.4607 17.2296 14.9502 17.4411 14.5745C17.6677 14.172 17.9568 13.782 18.2256 13.4529C18.4976 13.1201 18.7668 12.828 18.9667 12.6201C19.0672 12.5156 19.1515 12.4311 19.2115 12.3718C19.2428 12.341 19.2742 12.3102 19.3059 12.2799C19.421 12.1688 19.5567 12.0906 19.7007 12.0456C19.7981 12.0152 19.8991 12 20 12Z" fill="#801ED7"/>
<path d="M2 21C1.44772 21 1 21.4477 1 22C1 22.5523 1.44772 23 2 23L14 23C14.5523 23 15 22.5523 15 22C15 21.4477 14.5523 21 14 21L2 21Z" fill="#801ED7"/>
</svg>
